img/testi.svg

<svg width="122" height="100" viewBox="0 0 122 100" fill="none" xmlns="http://www.w3.org/2000/svg">
<path opacity="0.05" d="M96.8129 100C86.5807 100 78.8409 95.7672 73.5935 87.3016C69.1333 80.1587 66.9032 71.4286 66.9032 61.1111C66.9032 47.8836 70.1828 35.9788 76.7419 25.3968C83.5634 14.8148 93.7957 6.34922 107.439 0L110.981 7.14287C102.847 10.582 95.7634 16.0053 89.729 23.4127C83.957 30.8201 81.071 38.3598 81.071 46.0318C81.071 49.2064 81.4645 51.9841 82.2516 54.3651C86.4495 50.9259 91.3032 49.2064 96.8129 49.2064C103.897 49.2064 109.8 51.5873 114.523 56.3492C119.508 60.8466 122 66.9312 122 74.6032C122 81.746 119.508 87.8307 114.523 92.8571C109.8 97.619 103.897 100 96.8129 100ZM29.9097 100C19.6774 100 11.9376 95.7672 6.69032 87.3016C2.23011 80.1587 0 71.4286 0 61.1111C0 47.8836 3.27957 35.9788 9.83871 25.3968C16.6602 14.8148 26.8925 6.34922 40.5355 0L44.0774 7.14287C35.9441 10.582 28.8602 16.0053 22.8258 23.4127C17.0538 30.8201 14.1677 38.3598 14.1677 46.0318C14.1677 49.2064 14.5613 51.9841 15.3484 54.3651C19.5462 50.9259 24.4 49.2064 29.9097 49.2064C36.9935 49.2064 42.8968 51.5873 47.6194 56.3492C52.6043 60.8466 55.0968 66.9312 55.0968 74.6032C55.0968 81.746 52.6043 87.8307 47.6194 92.8571C42.8968 97.619 36.9935 100 29.9097 100Z" fill="#1D2947"/>
</svg>

<svg width="122" height="100" fill="none" xmlns="http://www.w3.org/2000/svg"><path opacity=".05" d="M96.813 100c-10.232 0-17.972-4.233-23.22-12.698-4.46-7.143-6.69-15.873-6.69-26.19 0-13.228 3.28-25.133 9.839-35.715C83.563 14.815 93.796 6.349 107.439 0l3.542 7.143c-8.134 3.439-15.218 8.862-21.252 16.27-5.772 7.407-8.658 14.947-8.658 22.619 0 3.174.394 5.952 1.18 8.333 4.198-3.44 9.052-5.159 14.562-5.159 7.084 0 12.987 2.381 17.71 7.143C119.508 60.847 122 66.931 122 74.603c0 7.143-2.492 13.228-7.477 18.254C109.8 97.62 103.897 100 96.813 100zm-66.903 0c-10.233 0-17.972-4.233-23.22-12.698C2.23 80.159 0 71.429 0 61.112c0-13.228 3.28-25.133 9.839-35.715C16.66 14.815 26.892 6.349 40.536 0l3.541 7.143c-8.133 3.439-15.217 8.862-21.251 16.27-5.772 7.407-8.658 14.947-8.658 22.619 0 3.174.393 5.952 1.18 8.333 4.198-3.44 9.052-5.159 14.562-5.159 7.083 0 12.987 2.381 17.71 7.143 4.984 4.498 7.477 10.582 7.477 18.254 0 7.143-2.493 13.228-7.478 18.254C42.897 97.62 36.993 100 29.91 100z" fill="#1D2947"/></svg>
